assets/images/common/submenu/home_black.svg

<svg height="41" viewBox="0 0 37 41" width="37" xmlns="http://www.w3.org/2000/svg"><path d="m18.08 27.95c1.31 0 2.37-1.08 2.37-2.42s-1.06-2.43-2.37-2.43-2.38 1.09-2.38 2.43 1.07 2.42 2.38 2.42zm0-3.73c.71 0 1.28.58 1.28 1.31 0 .72-.57 1.31-1.28 1.31s-1.29-.59-1.29-1.31c0-.73.58-1.31 1.29-1.31zm10.44-14.18c2.18 0 3.94-1.8 3.94-4.02s-1.76-4.02-3.94-4.02c-2.17 0-3.93 1.8-3.93 4.02s1.76 4.02 3.93 4.02zm0-6.93c1.58 0 2.85 1.31 2.85 2.91s-1.27 2.91-2.85 2.91c-1.57 0-2.84-1.31-2.84-2.91s1.27-2.91 2.84-2.91zm5.97 13.12c-.31 0-.55.25-.55.56v7.61c0 .2-.16.36-.35.36h-1.52v-9.82c0-.31-.24-.56-.55-.56-.3 0-.54.25-.54.56v23.68c0 .2 0 .36-.2.36h-1.42c-.19 0-.35-.16-.35-.36v-8.95c0-.31-.18-.56-.48-.56-.31 0-.55.25-.55.56v8.95c0 .2-.16.36-.35.36h-1.24c-.19 0-.35-.16-.35-.36v-23.68c0-.31-.18-.56-.48-.56s-.55.25-.55.56v9.82h-1.58c-.19 0-.35-.16-.35-.36v-9.46c0-1.83 1.71-2.85 3.5-2.85h4.08c1.79 0 3.28 1.02 3.28 2.85 0 .3.24.55.55.55.3 0 .54-.25.54-.55 0-2.45-1.98-3.96-4.37-3.96h-4.08c-2.4 0-4.59 1.51-4.59 3.96v9.46c0 .82.65 1.48 1.44 1.48h1.58v12.65c0 .81.65 1.47 1.44 1.47h1.18c.34 0 .65-.12.89-.32.25.2.56.32.9.32h1.36c.8 0 1.29-.66 1.29-1.47v-12.65h1.52c.79 0 1.44-.66 1.44-1.48v-7.61c0-.31-.24-.56-.54-.56zm-27.82-3.13c2.17 0 3.94-1.8 3.94-4.02s-1.77-4.02-3.94-4.02-3.94 1.8-3.94 4.02 1.77 4.02 3.94 4.02zm0-6.93c1.57 0 2.85 1.31 2.85 2.91s-1.28 2.91-2.85 2.91-2.85-1.31-2.85-2.91 1.28-2.91 2.85-2.91zm2.51 7.8h-4.3c-2.14 0-3.85 1.77-3.85 3.95v8.32c0 .75.6 1.36 1.33 1.36h.02l-.41 3.85c-.01.16.03.31.14.43.1.12.25.19.4.19h.49v6.57c0 .75.6 1.36 1.33 1.36h1.55c.3 0 .57-.1.79-.27.22.17.49.27.79.27h1.24c.73 0 1.33-.61 1.33-1.36v-3.07c0-.31-.25-.56-.55-.56s-.48.25-.48.56v3.13c0 .14-.11.25-.24.25h-1.49c-.13 0-.24-.11-.24-.25v-6.01c0-.3-.25-.21-.55-.21s-.45-.09-.45.21v6.01c0 .14-.11.25-.24.25h-1.52c-.14 0-.24-.11-.24-.25v-6.7h4.97v1.78c0 .31.18.56.48.56s.55-.25.55-.56v-1.71h.79c.16 0 .31-.07.41-.19s.15-.27.14-.43l.34-3.85h.01c.74 0 1.34-.61 1.34-1.36v-8.32c0-2.18-1.74-3.95-3.88-3.95zm2.79 12.27c0 .13-.11.24-.25.24h-.13l-1-9.27c-.03-.3-.3-.52-.6-.49s-.52.31-.48.61l.71 13.65h-.52-.34-5.38-.45-.41l1.43-13.65c.03-.3-.18-.58-.48-.61s-.57.19-.6.49l-.97 9.27h-.14c-.13 0-.24-.11-.24-.24v-8.32c0-1.56 1.22-2.9 2.76-2.9h4.3c1.54 0 2.79 1.34 2.79 2.9zm10.24-.14c-.39.02-.75.18-1.02.47l-2.03 2.37h-2.11l-2.03-2.37c-.56-.6-1.48-.63-2.07-.06-.59.56-.62 1.51-.06 2.11l2.1 2.56v7.37c0 .8.89 1.45 1.68 1.45h2.96c.79 0 1.39-.65 1.39-1.45v-3.06c0-.31-.21-.56-.51-.56s-.51.25-.51.56v3.15c0 .19-.15.34-.34.34h-1.13v-4.74c0-.3-.25-.55-.55-.55s-.54.25-.54.55v4.74h-.77c-.19 0-.65-.15-.65-.34v-7.68c0-.14-.05-.28-.15-.38l-2.19-2.73c-.14-.15-.13-.39.02-.53s.38-.14.52.02l2.2 2.51c.1.11.24.17.39.17h2.58c.15 0 .3-.06.4-.17l2.19-2.51c.14-.16.38-.16.53-.02s.15.38.01.53l-2.38 2.73c-.09.1-.14.24-.14.38v2.67c0 .31.21.56.51.56s.51-.25.51-.56v-2.45l2.3-2.56c.55-.6.52-1.55-.06-2.11-.29-.28-.66-.42-1.05-.41z"/></svg>

<svg xmlns="http://www.w3.org/2000/svg" xmlns:xlink= "http://www.w3.org/1999/xlink" viewBox="0 0 37 41" width="37" height="41">
	<style>
		tspan { white-space:pre }
		.shp0 { fill: black }
	</style>
	<path id="Home" class="shp0" d="M18.08 27.95C19.39 27.95 20.45 26.87 20.45 25.53C20.45 24.19 19.39 23.1 18.08 23.1C16.77 23.1 15.7 24.19 15.7 25.53C15.7 26.87 16.77 27.95 18.08 27.95ZM18.08 24.22C18.79 24.22 19.36 24.8 19.36 25.53C19.36 26.25 18.79 26.84 18.08 26.84C17.37 26.84 16.79 26.25 16.79 25.53C16.79 24.8 17.37 24.22 18.08 24.22ZM28.52 10.04C30.7 10.04 32.46 8.24 32.46 6.02C32.46 3.8 30.7 2 28.52 2C26.35 2 24.59 3.8 24.59 6.02C24.59 8.24 26.35 10.04 28.52 10.04ZM28.52 3.11C30.1 3.11 31.37 4.42 31.37 6.02C31.37 7.62 30.1 8.93 28.52 8.93C26.95 8.93 25.68 7.62 25.68 6.02C25.68 4.42 26.95 3.11 28.52 3.11ZM34.49 16.23C34.18 16.23 33.94 16.48 33.94 16.79L33.94 24.4C33.94 24.6 33.78 24.76 33.59 24.76L32.07 24.76L32.07 14.94C32.07 14.63 31.83 14.38 31.52 14.38C31.22 14.38 30.98 14.63 30.98 14.94L30.98 38.62C30.98 38.82 30.98 38.98 30.78 38.98L29.36 38.98C29.17 38.98 29.01 38.82 29.01 38.62L29.01 29.67C29.01 29.36 28.83 29.11 28.53 29.11C28.22 29.11 27.98 29.36 27.98 29.67L27.98 38.62C27.98 38.82 27.82 38.98 27.63 38.98L26.39 38.98C26.2 38.98 26.04 38.82 26.04 38.62L26.04 14.94C26.04 14.63 25.86 14.38 25.56 14.38C25.26 14.38 25.01 14.63 25.01 14.94L25.01 24.76L23.43 24.76C23.24 24.76 23.08 24.6 23.08 24.4L23.08 14.94C23.08 13.11 24.79 12.09 26.58 12.09L30.66 12.09C32.45 12.09 33.94 13.11 33.94 14.94C33.94 15.24 34.18 15.49 34.49 15.49C34.79 15.49 35.03 15.24 35.03 14.94C35.03 12.49 33.05 10.98 30.66 10.98L26.58 10.98C24.18 10.98 21.99 12.49 21.99 14.94L21.99 24.4C21.99 25.22 22.64 25.88 23.43 25.88L25.01 25.88L25.01 38.53C25.01 39.34 25.66 40 26.45 40L27.63 40C27.97 40 28.28 39.88 28.52 39.68C28.77 39.88 29.08 40 29.42 40L30.78 40C31.58 40 32.07 39.34 32.07 38.53L32.07 25.88L33.59 25.88C34.38 25.88 35.03 25.22 35.03 24.4L35.03 16.79C35.03 16.48 34.79 16.23 34.49 16.23ZM6.67 13.1C8.84 13.1 10.61 11.3 10.61 9.08C10.61 6.86 8.84 5.06 6.67 5.06C4.5 5.06 2.73 6.86 2.73 9.08C2.73 11.3 4.5 13.1 6.67 13.1ZM6.67 6.17C8.24 6.17 9.52 7.48 9.52 9.08C9.52 10.68 8.24 11.99 6.67 11.99C5.1 11.99 3.82 10.68 3.82 9.08C3.82 7.48 5.1 6.17 6.67 6.17ZM9.18 13.97L4.88 13.97C2.74 13.97 1.03 15.74 1.03 17.92L1.03 26.24C1.03 26.99 1.63 27.6 2.36 27.6L2.38 27.6L1.97 31.45C1.96 31.61 2 31.76 2.11 31.88C2.21 32 2.36 32.07 2.51 32.07L3 32.07L3 38.64C3 39.39 3.6 40 4.33 40L5.88 40C6.18 40 6.45 39.9 6.67 39.73C6.89 39.9 7.16 40 7.46 40L8.7 40C9.43 40 10.03 39.39 10.03 38.64L10.03 35.57C10.03 35.26 9.78 35.01 9.48 35.01C9.18 35.01 9 35.26 9 35.57L9 38.7C9 38.84 8.89 38.95 8.76 38.95L7.27 38.95C7.14 38.95 7.03 38.84 7.03 38.7L7.03 32.69C7.03 32.39 6.78 32.48 6.48 32.48C6.18 32.48 6.03 32.39 6.03 32.69L6.03 38.7C6.03 38.84 5.92 38.95 5.79 38.95L4.27 38.95C4.13 38.95 4.03 38.84 4.03 38.7L4.03 32L9 32L9 33.78C9 34.09 9.18 34.34 9.48 34.34C9.78 34.34 10.03 34.09 10.03 33.78L10.03 32.07L10.82 32.07C10.98 32.07 11.13 32 11.23 31.88C11.33 31.76 11.38 31.61 11.37 31.45L11.71 27.6L11.72 27.6C12.46 27.6 13.06 26.99 13.06 26.24L13.06 17.92C13.06 15.74 11.32 13.97 9.18 13.97ZM11.97 26.24L11.97 26.24C11.97 26.37 11.86 26.48 11.72 26.48L11.59 26.48L10.59 17.21C10.56 16.91 10.29 16.69 9.99 16.72C9.69 16.75 9.47 17.03 9.51 17.33L10.22 30.98L9.7 30.98L9.36 30.98L3.98 30.98L3.53 30.98L3.12 30.98L4.55 17.33C4.58 17.03 4.37 16.75 4.07 16.72C3.77 16.69 3.5 16.91 3.47 17.21L2.5 26.48L2.36 26.48C2.23 26.48 2.12 26.37 2.12 26.24L2.12 17.92C2.12 16.36 3.34 15.02 4.88 15.02L9.18 15.02C10.72 15.02 11.97 16.36 11.97 17.92L11.97 26.24L11.97 26.24ZM22.21 26.1C21.82 26.12 21.46 26.28 21.19 26.57L19.16 28.94L17.05 28.94L15.02 26.57C14.46 25.97 13.54 25.94 12.95 26.51C12.36 27.07 12.33 28.02 12.89 28.62L14.99 31.18L14.99 38.55C14.99 39.35 15.88 40 16.67 40L19.63 40C20.42 40 21.02 39.35 21.02 38.55L21.02 35.49C21.02 35.18 20.81 34.93 20.51 34.93C20.21 34.93 20 35.18 20 35.49L20 38.64C20 38.83 19.85 38.98 19.66 38.98L18.53 38.98L18.53 34.24C18.53 33.94 18.28 33.69 17.98 33.69C17.68 33.69 17.44 33.94 17.44 34.24L17.44 38.98L16.67 38.98C16.48 38.98 16.02 38.83 16.02 38.64L16.02 30.96C16.02 30.82 15.97 30.68 15.87 30.58L13.68 27.85C13.54 27.7 13.55 27.46 13.7 27.32C13.85 27.18 14.08 27.18 14.22 27.34L16.42 29.85C16.52 29.96 16.66 30.02 16.81 30.02L19.39 30.02C19.54 30.02 19.69 29.96 19.79 29.85L21.98 27.34C22.12 27.18 22.36 27.18 22.51 27.32C22.66 27.46 22.66 27.7 22.52 27.85L20.14 30.58C20.05 30.68 20 30.82 20 30.96L20 33.63C20 33.94 20.21 34.19 20.51 34.19C20.81 34.19 21.02 33.94 21.02 33.63L21.02 31.18L23.32 28.62C23.87 28.02 23.84 27.07 23.26 26.51C22.97 26.23 22.6 26.09 22.21 26.1Z" />
</svg>
